tela-icon-theme/src/16/places/folder-locked.svg

<svg width="16" height="16" version="1.1" viewBox="0 0 16 16" xmlns="http://www.w3.org/2000/svg">
 <defs>
  <style id="current-color-scheme" type="text/css">.ColorScheme-Text { color:#727272; } .ColorScheme-Highlight { color:#5294e2; }</style>
 </defs>
 <path class="ColorScheme-Text" d="m8 1c-2.216 0-4 1.8215-4 4.0625v1.9375h-1c-0.554 0-1 0.446-1 1v6c0 0.554 0.446 1 1 1h10c0.554 0 1-0.446 1-1v-6c0-0.554-0.446-1-1-1h-1v-1.9375c0-2.24-1.784-4.0625-4-4.0625zm0 2c1.108 0 2 0.891 2 2v2h-4v-2c0-1.109 0.892-2 2-2zm-4 6h8v4h-8v-4z" fill="currentColor"/>
</svg>

<svg xmlns="http://www.w3.org/2000/svg" width="16" height="16" version="1.1" viewBox="0 0 16 16">
 <defs>
  <style id="current-color-scheme" type="text/css">
   .ColorScheme-Text { color:#727272; } .ColorScheme-Highlight { color:#5294e2; }
  </style>
 </defs>
 <path style="fill:currentColor" class="ColorScheme-Text" d="M 8,1 C 5.784,1 4,2.821 4,5.062 V 7 H 3 C 2.446,7 2,7.446 2,8 V 14 C 2,14.554 2.446,15 3,15 H 13 C 13.554,15 14,14.554 14,14 V 8 C 14,7.446 13.554,7 13,7 H 12 V 5.062 C 12,2.822 10.216,1 8,1 Z M 8,3 C 9.108,3 10,3.891 10,5 V 7 H 6 V 5 C 6,3.891 6.892,3 8,3 Z"/>
</svg>
